assets/icons/qvision/rate_review.svg

<svg xmlns="http://www.w3.org/2000/svg" height="24" viewBox="0 0 24 24" width="24"><path d="M0 0h24v24H0zm15.35 6.41l-1.77-1.77c-.2-.2-.51-.2-.71 0L6 11.53V14h2.47l6.88-6.88c.2-.19.2-.51 0-.71z" fill="none"/><path d="M20 2H4c-1.1 0-1.99.9-1.99 2L2 22l4-4h14c1.1 0 2-.9 2-2V4c0-1.1-.9-2-2-2zM6 14v-2.47l6.88-6.88c.2-.2.51-.2.71 0l1.77 1.77c.2.2.2.51 0 .71L8.47 14H6zm12 0h-7.5l2-2H18v2z"/></svg>

<svg width="24" height="24" viewBox="0 0 24 24" fill="none" xmlns="http://www.w3.org/2000/svg">
<g clip-path="url(#clip0_147_5608)">
<path d="M20 2H4C2.9 2 2.01 2.9 2.01 4L2 22L6 18H20C21.1 18 22 17.1 22 16V4C22 2.9 21.1 2 20 2ZM6 14V11.53L12.88 4.65C13.08 4.45 13.39 4.45 13.59 4.65L15.36 6.42C15.56 6.62 15.56 6.93 15.36 7.13L8.47 14H6ZM18 14H10.5L12.5 12H18V14Z" fill="#323232"/>
</g>
<defs>
<clipPath id="clip0_147_5608">
<rect width="24" height="24" fill="white"/>
</clipPath>
</defs>
</svg>
